X: 20592
M: C
L: 1/16
K: G
d2 |\
(A3G)A3B c6de | dB3G3B A6(Bc) |\
d4d4 d6(ef) | g4g4 g6(fe) |\
d2B2A2B2 c6(de) | dB3A3B G4z2 |]
e4f4 g6G2 | A4B4 E4z2G2 |\
d3ed3g g2a2Hb2 (ge) | dB3A3B G4z2 |]


